src/images/ico/twitter.svg

<svg width="24" height="24" viewBox="0 0 24 24" fill="none" xmlns="http://www.w3.org/2000/svg">
<path d="M19.95 9.34998C19.95 8.93576 19.6142 8.59998 19.2 8.59998C18.7858 8.59998 18.45 8.93576 18.45 9.34998H19.95ZM3.60565 16.1076C3.36134 15.7731 2.89213 15.7 2.55764 15.9443C2.22314 16.1886 2.15004 16.6578 2.39435 16.9923L3.60565 16.1076ZM2.87257 15.8109C2.46438 15.8813 2.19053 16.2692 2.2609 16.6774C2.33128 17.0856 2.71924 17.3594 3.12743 17.2891L2.87257 15.8109ZM5.7 15.65L5.93829 16.3611C6.18386 16.2788 6.36961 16.0757 6.4296 15.8237C6.4896 15.5718 6.41535 15.3067 6.23322 15.1225L5.7 15.65ZM4.8 4.84998L5.46058 4.49482C5.33797 4.26676 5.10639 4.11808 4.84798 4.10151C4.58958 4.08495 4.34091 4.20284 4.19018 4.41337L4.8 4.84998ZM10.2 9.34998L10.0229 10.0788C10.2422 10.1321 10.4739 10.0837 10.6537 9.94719C10.8334 9.81064 10.9421 9.60039 10.9496 9.37477L10.2 9.34998ZM18.3 6.64998L17.6738 7.06275C17.8126 7.27327 18.0479 7.39998 18.3 7.39998V6.64998ZM21 6.64998L21.624 7.066C21.7775 6.83586 21.7918 6.53995 21.6613 6.29608C21.5307 6.05221 21.2766 5.89998 21 5.89998V6.64998ZM18.576 8.93395C18.3462 9.2786 18.4393 9.74425 18.784 9.97401C19.1286 10.2038 19.5943 10.1106 19.824 9.766L18.576 8.93395ZM18.45 9.34998C18.45 12.3619 17.5901 14.871 16.0501 16.6163C14.5204 18.3499 12.2593 19.4 9.3 19.4V20.9C12.6407 20.9 15.3296 19.7 17.1749 17.6087C19.0099 15.529 19.95 12.638 19.95 9.34998H18.45ZM9.3 19.4C7.64458 19.4 6.5374 18.9724 5.70459 18.3831C4.84887 17.7776 4.23772 16.973 3.60565 16.1076L2.39435 16.9923C3.01928 17.848 3.75813 18.8433 4.83816 19.6076C5.9411 20.388 7.35542 20.9 9.3 20.9V19.4ZM3.12743 17.2891C3.15119 17.285 3.16958 17.2806 3.17593 17.2791C3.18458 17.277 3.19158 17.2751 3.19578 17.274C3.20418 17.2717 3.21102 17.2698 3.21457 17.2687C3.22212 17.2665 3.229 17.2644 3.23345 17.263C3.24301 17.26 3.25419 17.2564 3.26552 17.2528C3.28875 17.2453 3.32054 17.2349 3.35881 17.2223C3.43573 17.197 3.54331 17.1613 3.67073 17.1189C3.92579 17.0341 4.26283 16.9216 4.5986 16.8094C4.93446 16.6972 5.26937 16.5851 5.5203 16.5011C5.64577 16.4591 5.75026 16.4241 5.82338 16.3996C5.85994 16.3874 5.88866 16.3777 5.90825 16.3712C5.91804 16.3679 5.92555 16.3654 5.93061 16.3637C5.93314 16.3628 5.93506 16.3622 5.93634 16.3618C5.93699 16.3616 5.93747 16.3614 5.9378 16.3613C5.93796 16.3612 5.93808 16.3612 5.93816 16.3612C5.93821 16.3611 5.93824 16.3611 5.93826 16.3611C5.93828 16.3611 5.93829 16.3611 5.7 15.65C5.46171 14.9388 5.4617 14.9388 5.46168 14.9388C5.46166 14.9389 5.46163 14.9389 5.46159 14.9389C5.46151 14.9389 5.46139 14.9389 5.46123 14.939C5.46091 14.9391 5.46042 14.9393 5.45978 14.9395C5.4585 14.9399 5.45659 14.9406 5.45407 14.9414C5.44902 14.9431 5.44152 14.9456 5.43175 14.9489C5.41219 14.9554 5.3835 14.965 5.34697 14.9773C5.2739 15.0017 5.16949 15.0367 5.0441 15.0787C4.79331 15.1627 4.45867 15.2746 4.12315 15.3868C3.78755 15.4989 3.4514 15.6111 3.19749 15.6955C3.07042 15.7378 2.96458 15.7729 2.88987 15.7975C2.85233 15.8098 2.82377 15.8192 2.80469 15.8253C2.79486 15.8285 2.78939 15.8302 2.78715 15.8309C2.78569 15.8314 2.78787 15.8307 2.79198 15.8295C2.79381 15.8289 2.79923 15.8274 2.80654 15.8254C2.8102 15.8244 2.81673 15.8227 2.82499 15.8207C2.83095 15.8193 2.84904 15.8149 2.87257 15.8109L3.12743 17.2891ZM6.23322 15.1225C3.48941 12.3486 3.28417 8.25557 5.40982 5.28658L4.19018 4.41337C1.64783 7.96438 1.89859 12.8733 5.16678 16.1774L6.23322 15.1225ZM4.13942 5.20513C5.31949 7.40005 7.53919 9.47513 10.0229 10.0788L10.3771 8.62119C8.40881 8.14282 6.49451 6.4179 5.46058 4.49482L4.13942 5.20513ZM10.9496 9.37477C10.9872 8.23878 11.388 7.29965 12.0242 6.64954C12.6563 6.00352 13.5621 5.59998 14.7 5.59998V4.09998C13.1869 4.09998 11.8857 4.64643 10.9521 5.60041C10.0225 6.5503 9.49883 7.86117 9.45041 9.32518L10.9496 9.37477ZM14.7 5.59998C15.5057 5.59998 16.0959 5.75288 16.5489 5.99465C17.0003 6.23555 17.3617 6.58933 17.6738 7.06275L18.9262 6.2372C18.5053 5.59862 17.9692 5.05241 17.2551 4.67131C16.5426 4.29107 15.6993 4.09998 14.7 4.09998V5.59998ZM18.3 7.39998H21V5.89998H18.3V7.39998ZM20.376 6.23395L18.576 8.93395L19.824 9.766L21.624 7.066L20.376 6.23395Z" fill="white"/>
</svg>

<svg width="24" height="24" viewBox="0 0 24 24" fill="none" xmlns="http://www.w3.org/2000/svg"><path d="M19.95 9.35a.75.75 0 00-1.5 0h1.5zM3.606 16.108a.75.75 0 00-1.212.884l1.212-.884zm-.733-.297a.75.75 0 10.254 1.478l-.254-1.478zM5.7 15.65l.238.711a.75.75 0 00.295-1.239l-.533.528zm-.9-10.8l.66-.355a.75.75 0 00-1.27-.082l.61.437zm5.4 4.5l-.177.729a.75.75 0 00.927-.704l-.75-.025zm8.1-2.7l-.626.413a.75.75 0 00.626.337v-.75zm2.7 0l.624.416A.75.75 0 0021 5.9v.75zm-2.424 2.284a.75.75 0 101.248.832l-1.248-.832zm-.126.416c0 3.012-.86 5.521-2.4 7.266C14.52 18.35 12.26 19.4 9.3 19.4v1.5c3.34 0 6.03-1.2 7.875-3.291 1.835-2.08 2.775-4.971 2.775-8.259h-1.5zM9.3 19.4c-1.655 0-2.763-.428-3.595-1.017-.856-.605-1.467-1.41-2.1-2.275l-1.21.884c.624.856 1.363 1.851 2.443 2.616 1.103.78 2.517 1.292 4.462 1.292v-1.5zm-6.173-2.11c.024-.005.043-.01.049-.01l.02-.006a.757.757 0 00.037-.011l.033-.01.093-.03.312-.104a699.726 699.726 0 002.152-.72l.085-.028.023-.007.005-.002h.002L5.7 15.65l-.238-.711H5.46l-.006.002-.022.008-.085.028-.303.102-.92.308a728.78 728.78 0 01-1.234.41l-.085.028-.018.006.005-.002a.51.51 0 01.033-.008l.048-.01.254 1.478zm3.106-2.167C3.49 12.349 3.284 8.256 5.41 5.287l-1.22-.874c-2.542 3.551-2.291 8.46.977 11.764l1.066-1.054zM4.14 5.205c1.18 2.195 3.4 4.27 5.884 4.874l.354-1.458C8.41 8.143 6.495 6.418 5.461 4.495l-1.322.71zm6.81 4.17c.038-1.136.439-2.075 1.075-2.725.632-.646 1.538-1.05 2.676-1.05V4.1c-1.513 0-2.814.546-3.748 1.5-.93.95-1.453 2.261-1.502 3.725l1.5.05zM14.7 5.6c.806 0 1.396.153 1.849.395.451.24.813.594 1.125 1.068l1.252-.826c-.42-.638-.957-1.185-1.67-1.566-.713-.38-1.557-.571-2.556-.571v1.5zm3.6 1.8H21V5.9h-2.7v1.5zm2.076-1.166l-1.8 2.7 1.248.832 1.8-2.7-1.248-.832z" fill="#fff"/></svg>
